Obsidian/actions/16s/dependency.svg

<svg viewBox="0 0 16 16" xmlns="http://www.w3.org/2000/svg"><path d="m7.5 2-3.5 7 .8945312.4472656 2.1054688-4.2109375v2.7636719h1v-2.7636719l2.105469 4.2109375.894531-.4472656zm-.5 7v2h1v-2zm0 3v2h1v-2z" fill="#f2f2f2"/></svg>

<svg xmlns="http://www.w3.org/2000/svg" viewBox="0 0 16 16">
  <defs id="defs3051">
    <style type="text/css" id="current-color-scheme">
      .ColorScheme-Text {
        color:#f2f2f2;
      }
      </style>
  </defs>
 <path style="fill:currentColor;fill-opacity:1;stroke:none" 
     d="M 7.5 2 L 4 9 L 4.8945312 9.4472656 L 7 5.2363281 L 7 8 L 8 8 L 8 5.2363281 L 10.105469 9.4472656 L 11 9 L 7.5 2 z M 7 9 L 7 11 L 8 11 L 8 9 L 7 9 z M 7 12 L 7 14 L 8 14 L 8 12 L 7 12 z "
     class="ColorScheme-Text"
     />
</svg>
